modules/zondicons/icons/timer.svg

<?xml version="1.0" encoding="UTF-8" standalone="no"?>
<svg width="20px" height="20px" viewBox="0 0 20 20" version="1.1" xmlns="http://www.w3.org/2000/svg" xmlns:xlink="http://www.w3.org/1999/xlink">
    <!-- Generator: Sketch 3.7.2 (28276) - http://www.bohemiancoding.com/sketch -->
    <title>timer</title>
    <desc>Created with Sketch.</desc>
    <defs></defs>
    <g id="Page-1" stroke="none" stroke-width="1" fill="none" fill-rule="evenodd">
        <g id="timer" fill="#000000">
            <path d="M14.9056439,5.68014258 C13.7991209,4.81998894 12.4607085,4.24404153 11,4.06189375 L11,2 L9,2 L9,4.06189375 C5.05368842,4.55399184 2,7.92038235 2,12 C2,16.418278 5.581722,20 10,20 C14.418278,20 18,16.418278 18,12 C18,10.1512885 17.3729184,8.44903985 16.3198574,7.09435615 L17.7781746,5.63603897 L16.363961,4.22182541 L14.9056439,5.68014258 Z M10,18 C13.3137085,18 16,15.3137085 16,12 C16,8.6862915 13.3137085,6 10,6 C6.6862915,6 4,8.6862915 4,12 C4,15.3137085 6.6862915,18 10,18 Z M7,0 L13,0 L13,2 L7,2 L7,0 Z M12.1213203,8.46446609 L13.5355339,9.87867966 L10,13.4142136 L8.58578644,12 L12.1213203,8.46446609 Z" id="Combined-Shape"></path>
        </g>
    </g>
</svg>

<svg width="20" height="20" viewBox="0 0 20 20" xmlns="http://www.w3.org/2000/svg"><path d="M14.906 5.68A7.96 7.96 0 0 0 11 4.062V2H9v2.062A8.001 8.001 0 0 0 10 20a8 8 0 0 0 6.32-12.906l1.458-1.458-1.414-1.414-1.458 1.458zM10 18a6 6 0 1 0 0-12 6 6 0 0 0 0 12zM7 0h6v2H7V0zm5.121 8.464l1.415 1.415L10 13.414 8.586 12l3.535-3.536z" fill="#000" fill-rule="evenodd"/></svg>
